arkscan/icons/nominex.svg

<svg viewBox="0 0 20 20" fill="none" xmlns="http://www.w3.org/2000/svg">
  <path fill-rule="evenodd" clip-rule="evenodd"
    d="M0.920945 11.0951C1.58599 11.1294 2.23441 10.8812 2.70516 10.4125L7.76428 5.37792C8.26883 4.87588 9.02759 4.72572 9.68676 4.99746C10.3459 5.26919 10.7757 5.90932 10.7758 6.61937V11.3803L14.9668 7.20945C15.9238 6.25751 17.2461 5.76149 18.5964 5.84797L18.6199 5.84945C16.6986 1.39399 11.7551 -0.952711 7.06655 0.364976C2.37803 1.68266 -0.601619 6.2561 0.102818 11.0536L0.920945 11.0951Z"
    fill="#007DFF" />
  <path fill-rule="evenodd" clip-rule="evenodd"
    d="M18.446 8.18374C17.7706 8.13995 17.109 8.3883 16.631 8.86505L11.4355 14.0363C11.1057 14.3658 10.6575 14.5511 10.1901 14.5513C9.2151 14.5513 8.42476 13.7647 8.42476 12.7944V8.03223L4.36956 12.0689C3.42732 13.0055 2.13077 13.5015 0.800729 13.4342L0.775391 13.4328C2.68615 17.9029 7.63641 20.2644 12.3348 18.9472C17.0332 17.63 20.0168 13.0441 19.3019 8.23878L18.446 8.18374Z"
    fill="#77B9FE" />
</svg>

<svg viewBox="0 0 20 20" fill="none" xmlns="http://www.w3.org/2000/svg"><path fill-rule="evenodd" clip-rule="evenodd" d="M.92 11.095a2.357 2.357 0 0 0 1.785-.683l5.06-5.034a1.77 1.77 0 0 1 1.922-.38c.659.271 1.089.911 1.089 1.621v4.761l4.19-4.17a4.72 4.72 0 0 1 3.63-1.362l.024.001C16.699 1.394 11.755-.953 7.067.365 2.378 1.683-.602 6.256.103 11.054l.818.041Z" fill="#007DFF"/><path fill-rule="evenodd" clip-rule="evenodd" d="M18.446 8.184a2.355 2.355 0 0 0-1.815.681l-5.196 5.171c-.33.33-.777.515-1.245.515a1.761 1.761 0 0 1-1.765-1.757V8.032L4.37 12.07A4.724 4.724 0 0 1 .8 13.434l-.025-.001c1.911 4.47 6.861 6.831 11.56 5.514 4.698-1.317 7.682-5.903 6.967-10.708l-.856-.055Z" fill="#77B9FE"/></svg>
